svg/fluentui-system-icons/ic_fluent_tab_inprivate_account_24_filled.svg

<svg width="24" height="24" viewBox="0 0 24 24" fill="none" xmlns="http://www.w3.org/2000/svg">
<path d="M5.75 3C4.23122 3 3 4.23122 3 5.75V18.25C3 19.7688 4.23122 21 5.75 21H12.3714C12.1317 20.4896 12 19.9284 12 19.328V19H5.75C5.33579 19 5 18.6642 5 18.25V5.75C5 5.33579 5.33579 5 5.75 5H18.25C18.6642 5 19 5.33579 19 5.75V9.12602C19.7862 9.32838 20.4789 9.76377 21 10.3542V5.75C21 4.23122 19.7688 3 18.25 3H5.75ZM15 13C15 11.3431 16.3431 10 18 10V11H20.2361C20.4944 11.2885 20.6976 11.6274 20.8293 12H18V13H21C21 13.3506 20.9398 13.6872 20.8293 14H18V15H20.2361C19.6868 15.6137 18.8885 16 18 16C16.3431 16 15 14.6569 15 13ZM14.9375 17C14.3563 17 13.8688 17.2822 13.5423 17.6347C13.2184 17.9845 13 18.4582 13 18.944V19.328C13 21.2893 15.0414 23 18 23V22H21.4726C21.881 21.7117 22.2176 21.373 22.4698 21H18V20H22.9189C22.9724 19.7809 23 19.5561 23 19.328V19H18V18H22.7296C22.6519 17.8682 22.5601 17.7453 22.4577 17.6347C22.1312 17.2822 21.6437 17 21.0625 17H14.9375Z" fill="#212121"/>
</svg>

<svg xmlns="http://www.w3.org/2000/svg" width="24" height="24"><path d="M5.75 3A2.75 2.75 0 0 0 3 5.75v12.5A2.75 2.75 0 0 0 5.75 21h6.621A3.904 3.904 0 0 1 12 19.328V19H5.75a.75.75 0 0 1-.75-.75V5.75A.75.75 0 0 1 5.75 5h12.5a.75.75 0 0 1 .75.75v3.376a4 4 0 0 1 2 1.228V5.75A2.75 2.75 0 0 0 18.25 3H5.75ZM15 13a3 3 0 0 1 3-3v1h2.236c.258.289.462.627.593 1H18v1h3c0 .35-.06.687-.17 1H18v1h2.236A3 3 0 0 1 15 13Zm-.063 4c-.58 0-1.068.282-1.395.635-.324.35-.542.823-.542 1.309v.384C13 21.289 15.041 23 18 23v-1h3.473a3.93 3.93 0 0 0 .997-1H18v-1h4.919a2.86 2.86 0 0 0 .081-.672V19h-5v-1h4.73a2.135 2.135 0 0 0-.272-.365c-.327-.353-.814-.635-1.395-.635h-6.125Z"/></svg>
